X:161
T:Sally Kelly's Reel
B:NFID.188b
161sally
S:DOD
L:1/8
M:C
R:reel
Q:360
K:Em
DF|GEed e2eg|fede fgab|gefd e2BG|AcBA GEEF|
Eee^d e2eg|fede fgab|gefd e2BG|(3ABc BA GEE||
F|GABd G2GB|GABd cAAa|gefd e2BG|1 AcBA GEE:|\
[2 AcBA GEE2|]

%%%

